X:0263
M:6/8
L:1/8
Q:3/8=90
K:D
f/g/|aAA AB=c|BAG g2f/g/|afd gec|d3 {de}f2 :|
f/g/|afd faf |ece g2f/g/|afd ded|f3     g>fg|
     afd faf |ece g>fg  |afd gec|d3 {de}f2 :|

